vendor/shopware/storefront/Resources/app/storefront/dist/assets/icon/default/avatar.svg

<svg xmlns="http://www.w3.org/2000/svg" width="24" height="24" viewBox="0 0 24 24">
  <path fill="#758CA3" fill-rule="evenodd" d="M12,3 C9.790861,3 8,4.790861 8,7 C8,9.209139 9.790861,11 12,11 C14.209139,11 16,9.209139 16,7 C16,4.790861 14.209139,3 12,3 Z M12,1 C15.3137085,1 18,3.6862915 18,7 C18,10.3137085 15.3137085,13 12,13 C8.6862915,13 6,10.3137085 6,7 C6,3.6862915 8.6862915,1 12,1 Z M4,22.0990195 C4,22.6513043 3.55228475,23.0990195 3,23.0990195 C2.44771525,23.0990195 2,22.6513043 2,22.0990195 L2,20 C2,17.2385763 4.23857625,15 7,15 L17.0007003,15 C19.7621241,15 22.0007003,17.2385763 22.0007003,20 L22.0007003,22.0990195 C22.0007003,22.6513043 21.5529851,23.0990195 21.0007003,23.0990195 C20.4484156,23.0990195 20.0007003,22.6513043 20.0007003,22.0990195 L20.0007003,20 C20.0007003,18.3431458 18.6575546,17 17.0007003,17 L7,17 C5.34314575,17 4,18.3431458 4,20 L4,22.0990195 Z"/>
</svg>

<svg xmlns="http://www.w3.org/2000/svg" width="24" height="24" viewBox="0 0 24 24"><path fill="#758CA3" fill-rule="evenodd" d="M12 3C9.7909 3 8 4.7909 8 7c0 2.2091 1.7909 4 4 4 2.2091 0 4-1.7909 4-4 0-2.2091-1.7909-4-4-4zm0-2c3.3137 0 6 2.6863 6 6s-2.6863 6-6 6-6-2.6863-6-6 2.6863-6 6-6zM4 22.099c0 .5523-.4477 1-1 1s-1-.4477-1-1V20c0-2.7614 2.2386-5 5-5h10.0007c2.7614 0 5 2.2386 5 5v2.099c0 .5523-.4477 1-1 1s-1-.4477-1-1V20c0-1.6569-1.3431-3-3-3H7c-1.6569 0-3 1.3431-3 3v2.099z"/></svg>
